X:1
T: Ann Sheehey's Jig
N:
C:
S:
A:
O:
R:
M:6/8
K:G
I:speed 180
%W:
% voice 1 (1 lines, 42 notes)
K:G
M:6/8
L:1/16
F2 |A4 D2 F2 E2 D2 A4 B2 e2 A2 F2 G4 E2 E2 D2 E2 c4 d2 c2 A2 G2 |A4 D2 F2 E2 D2 A4 B2 c2 A2 F2 G2 E2 E2 c2 E2 E2 D2 E2 D2 D4 F2 |
%W:
% voice 1 (1 lines, 41 notes)
A4 D2 F2 E2 D2 A4 B2 e2 A2 F2 G4 E2 E2 D2 E2 c4 d2 c2 A2 G2 |A4 D2 F2 E2 D2 A4 B2 c2 A2 F2 G2 E2 E2 c2 E2 E2 D2 E2 D2 D4 A2 |
%W:
% voice 1 (1 lines, 42 notes)
d4 e2 f2 e2 d2 e4 d2 c2 A2 F2 G4 E2 E2 D2 E2 c4 d2 c2 A2 G2 |A2 d2 d2 f2 e2 d2 e4 d2 c2 A2 F2 G2 E2 E2 c2 E2 E2 D2 E2 D2 D4 A2 |
%W:
% voice 1 (1 lines, 41 notes)
d4 e2 f2 e2 d2 e4 d2 c2 A2 F2 G4 E2 E2 D2 E2 c4 d2 c2 A2 G2 |A2 d2 d2 f2 e2 d2 e4 d2 c2 A2 F2 G2 E2 E2 c2 E2 E2 D2 E2 D2 D4 ||
